app/img/instagram.svg

<svg width="40" height="40" viewBox="0 0 40 40" fill="none" xmlns="http://www.w3.org/2000/svg">
<path fill-rule="evenodd" clip-rule="evenodd" d="M15.6027 9.39776C16.7405 9.34598 17.1041 9.33331 20.001 9.33331H19.9977C22.8955 9.33331 23.2577 9.34598 24.3955 9.39776C25.5311 9.44976 26.3066 9.62954 26.9866 9.89332C27.6889 10.1655 28.2822 10.53 28.8755 11.1233C29.4689 11.7162 29.8333 12.3113 30.1067 13.0129C30.3689 13.6911 30.5489 14.4663 30.6022 15.6018C30.6533 16.7396 30.6667 17.1032 30.6667 20.0001C30.6667 22.897 30.6533 23.2597 30.6022 24.3975C30.5489 25.5326 30.3689 26.3079 30.1067 26.9864C29.8333 27.6877 29.4689 28.2828 28.8755 28.8757C28.2829 29.4691 27.6886 29.8344 26.9873 30.1069C26.3086 30.3706 25.5326 30.5504 24.3971 30.6024C23.2593 30.6542 22.8968 30.6669 19.9997 30.6669C17.103 30.6669 16.7396 30.6542 15.6019 30.6024C14.4665 30.5504 13.6912 30.3706 13.0125 30.1069C12.3114 29.8344 11.7163 29.4691 11.1236 28.8757C10.5305 28.2828 10.166 27.6877 9.89335 26.9862C9.62979 26.3079 9.45001 25.5328 9.39779 24.3972C9.34623 23.2595 9.33334 22.897 9.33334 20.0001C9.33334 17.1032 9.34668 16.7394 9.39757 15.6016C9.44868 14.4665 9.62868 13.6911 9.89313 13.0127C10.1665 12.3113 10.5309 11.7162 11.1243 11.1233C11.7171 10.5302 12.3123 10.1658 13.0138 9.89332C13.6921 9.62954 14.4672 9.44976 15.6027 9.39776ZM19.6455 11.2555C19.4298 11.2554 19.23 11.2553 19.0442 11.2556V11.2529C17.0561 11.2551 16.6748 11.2685 15.6908 11.3129C14.6508 11.3607 14.0861 11.534 13.7101 11.6807C13.2123 11.8745 12.8568 12.1056 12.4834 12.4789C12.1101 12.8523 11.8785 13.2078 11.6852 13.7056C11.5392 14.0816 11.3654 14.6461 11.3179 15.6861C11.2667 16.8105 11.2565 17.1465 11.2565 19.995C11.2565 22.8435 11.2667 23.1813 11.3179 24.3057C11.3652 25.3457 11.5392 25.9102 11.6852 26.2857C11.879 26.7837 12.1101 27.1384 12.4834 27.5117C12.8568 27.8851 13.2123 28.1162 13.7101 28.3095C14.0863 28.4555 14.6508 28.6293 15.6908 28.6773C16.8152 28.7284 17.1528 28.7395 20.0011 28.7395C22.8491 28.7395 23.1869 28.7284 24.3113 28.6773C25.3513 28.6298 25.9162 28.4564 26.2918 28.3098C26.7898 28.1164 27.1442 27.8853 27.5176 27.512C27.8909 27.1389 28.1225 26.7844 28.3158 26.2866C28.4618 25.9111 28.6356 25.3466 28.6831 24.3066C28.7343 23.1821 28.7454 22.8444 28.7454 19.9977C28.7454 17.151 28.7343 16.8132 28.6831 15.6887C28.6358 14.6487 28.4618 14.0843 28.3158 13.7087C28.122 13.2109 27.8909 12.8554 27.5176 12.482C27.1445 12.1087 26.7896 11.8776 26.2918 11.6842C25.9158 11.5382 25.3513 11.3645 24.3113 11.3169C23.1866 11.2658 22.8491 11.2556 20.0011 11.2556L19.6455 11.2555ZM14.5232 19.9999C14.5232 16.9748 16.9759 14.5221 20.001 14.5221H20.0008C23.026 14.5221 25.478 16.9748 25.478 19.9999C25.478 23.0251 23.0262 25.4767 20.001 25.4767C16.9759 25.4767 14.5232 23.0251 14.5232 19.9999ZM23.5566 20.0002C23.5566 18.0364 21.9646 16.4446 20.001 16.4446C18.0372 16.4446 16.4454 18.0364 16.4454 20.0002C16.4454 21.9638 18.0372 23.5558 20.001 23.5558C21.9646 23.5558 23.5566 21.9638 23.5566 20.0002ZM24.415 14.3064C24.415 13.5995 24.9883 13.0268 25.695 13.0268V13.0263C26.4017 13.0263 26.975 13.5997 26.975 14.3064C26.975 15.013 26.4017 15.5864 25.695 15.5864C24.9883 15.5864 24.415 15.013 24.415 14.3064Z" fill="#1E2E36"/>
</svg>

<svg width="40" height="40" fill="none" xmlns="http://www.w3.org/2000/svg"><path fill-rule="evenodd" clip-rule="evenodd" d="M15.603 9.398c1.138-.052 1.501-.065 4.398-.065h-.003c2.897 0 3.26.013 4.397.065 1.136.052 1.912.232 2.592.495a5.212 5.212 0 011.889 1.23 5.235 5.235 0 011.23 1.89c.263.678.443 1.453.496 2.589.051 1.138.065 1.501.065 4.398s-.014 3.26-.065 4.398c-.053 1.135-.233 1.91-.495 2.588a5.237 5.237 0 01-1.232 1.89 5.219 5.219 0 01-1.888 1.23c-.678.265-1.454.444-2.59.496-1.138.052-1.5.065-4.397.065-2.897 0-3.26-.013-4.398-.065-1.136-.052-1.91-.231-2.59-.495a5.224 5.224 0 01-1.888-1.231 5.227 5.227 0 01-1.23-1.89c-.264-.678-.444-1.453-.496-2.589-.052-1.137-.065-1.5-.065-4.397 0-2.897.014-3.26.065-4.398.05-1.136.23-1.91.495-2.59a5.236 5.236 0 011.231-1.889 5.223 5.223 0 011.89-1.23c.678-.263 1.453-.443 2.589-.495zm4.042 1.857h-.6v-.002c-1.989.002-2.37.015-3.354.06-1.04.048-1.605.221-1.98.368a3.311 3.311 0 00-1.228.798 3.305 3.305 0 00-.798 1.227c-.146.376-.32.94-.367 1.98-.051 1.125-.061 1.46-.061 4.309 0 2.848.01 3.186.06 4.31.048 1.04.222 1.605.368 1.98.194.499.425.853.798 1.227.374.373.73.604 1.227.797.376.146.94.32 1.98.368 1.125.051 1.463.063 4.311.063s3.186-.012 4.31-.063c1.04-.047 1.605-.22 1.98-.367a3.3 3.3 0 001.227-.798c.373-.373.604-.728.798-1.225.146-.376.32-.94.367-1.98.051-1.125.062-1.463.062-4.31 0-2.846-.01-3.184-.062-4.308-.047-1.04-.221-1.605-.367-1.98a3.311 3.311 0 00-.798-1.227 3.3 3.3 0 00-1.226-.798c-.376-.146-.94-.32-1.98-.367-1.125-.051-1.463-.061-4.31-.061h-.357zM14.523 20a5.477 5.477 0 1110.955 0 5.477 5.477 0 01-10.955 0zm9.034 0a3.556 3.556 0 10-7.112 0 3.556 3.556 0 007.112 0zm.858-5.694a1.28 1.28 0 112.56 0 1.28 1.28 0 01-2.56 0z" fill="#1E2E36"/></svg>
